overrides/.icons/die/d10.svg

<?xml version="1.0" encoding="UTF-8" standalone="no"?>
<svg
   viewBox="0 0 24 24"
   version="1.1"
   id="svg1"
   sodipodi:docname="d10.svg"
   xml:space="preserve"
   inkscape:version="1.3.2 (091e20e, 2023-11-25, custom)"
   xmlns:inkscape="http://www.inkscape.org/namespaces/inkscape"
   xmlns:sodipodi="http://sodipodi.sourceforge.net/DTD/sodipodi-0.dtd"
   xmlns="http://www.w3.org/2000/svg"
   xmlns:svg="http://www.w3.org/2000/svg"><defs
     id="defs1"><inkscape:path-effect
       effect="fillet_chamfer"
       id="path-effect6"
       is_visible="true"
       lpeversion="1"
       nodesatellites_param="F,0,1,1,0,1.7251199,0,1 @ F,0,1,1,0,1.7251199,0,1 @ F,0,1,1,0,1.7251199,0,1 @ F,0,1,1,0,1.7251199,0,1 @ F,0,0,1,0,1.7251199,0,1 @ F,0,1,1,0,1.7251199,0,1"
       radius="0"
       unit="px"
       method="auto"
       mode="F"
       chamfer_steps="1"
       flexible="false"
       use_knot_distance="true"
       apply_no_radius="true"
       apply_with_radius="true"
       only_selected="false"
       hide_knots="false" /><inkscape:path-effect
       effect="fillet_chamfer"
       id="path-effect5"
       is_visible="true"
       lpeversion="1"
       nodesatellites_param="F,0,0,1,0,0,0,1 @ F,0,0,1,0,0,0,1 @ F,0,0,1,0,0,0,1 @ F,0,0,1,0,0,0,1 @ F,0,0,1,0,0,0,1 @ F,0,0,1,0,0,0,1"
       radius="0"
       unit="px"
       method="auto"
       mode="F"
       chamfer_steps="1"
       flexible="false"
       use_knot_distance="true"
       apply_no_radius="true"
       apply_with_radius="true"
       only_selected="false"
       hide_knots="false" /><inkscape:path-effect
       effect="fillet_chamfer"
       id="path-effect4"
       is_visible="true"
       lpeversion="1"
       nodesatellites_param="F,0,0,1,0,0,0,1 @ F,0,0,1,0,0,0,1 @ F,0,0,1,0,0,0,1 @ F,0,0,1,0,0,0,1 @ F,0,0,1,0,0,0,1 @ F,0,0,1,0,0,0,1 @ F,0,0,1,0,0,0,1 @ F,0,0,1,0,0,0,1 @ F,0,0,1,0,0,0,1 @ F,0,0,1,0,0,0,1 @ F,0,0,1,0,0,0,1 @ F,0,0,1,0,0,0,1"
       radius="0"
       unit="px"
       method="auto"
       mode="F"
       chamfer_steps="1"
       flexible="false"
       use_knot_distance="true"
       apply_no_radius="true"
       apply_with_radius="true"
       only_selected="false"
       hide_knots="false" /><inkscape:path-effect
       effect="fillet_chamfer"
       id="path-effect3"
       is_visible="true"
       lpeversion="1"
       nodesatellites_param="F,0,1,1,0,1.4620721,0,1 @ F,0,0,1,0,0,0,1 @ F,0,0,1,0,0,0,1 @ F,0,0,1,0,0,0,1 @ F,0,0,1,0,0,0,1 @ F,0,0,1,0,0,0,1 @ F,0,0,1,0,1.4620721,0,1 @ F,0,0,1,0,0,0,1 @ F,0,0,1,0,0,0,1 @ F,0,0,1,0,0,0,1 @ F,0,0,1,0,0,0,1 @ F,0,0,1,0,0,0,1"
       radius="0"
       unit="px"
       method="auto"
       mode="F"
       chamfer_steps="1"
       flexible="false"
       use_knot_distance="true"
       apply_no_radius="true"
       apply_with_radius="true"
       only_selected="false"
       hide_knots="false" /></defs><sodipodi:namedview
     id="namedview1"
     pagecolor="#ffffff"
     bordercolor="#666666"
     borderopacity="1.0"
     inkscape:showpageshadow="2"
     inkscape:pageopacity="0.0"
     inkscape:pagecheckerboard="0"
     inkscape:deskcolor="#d1d1d1"
     inkscape:zoom="8"
     inkscape:cx="10.375"
     inkscape:cy="14.3125"
     inkscape:window-width="1360"
     inkscape:window-height="715"
     inkscape:window-x="-8"
     inkscape:window-y="-8"
     inkscape:window-maximized="1"
     inkscape:current-layer="svg1" /><path
     id="path4"
     style="stroke-width:1;paint-order:stroke markers fill"
     d="M 12,1.8060991 A 1.2535561,0.52619967 0 0 0 10.877164,2.0967623 L 3.1228348,8.6307059 A 10.688005,4.4864564 0 0 0 1.9999997,10.631503 v 2.735417 a 10.688006,4.486457 0 0 0 1.1228351,2.000796 l 7.7543292,6.533944 a 1.2535561,0.52619967 0 0 0 2.245671,0 l 7.75433,-6.533944 A 10.688005,4.4864563 0 0 0 22,13.36692 V 10.631503 A 10.688006,4.486457 0 0 0 20.877165,8.6307059 L 13.122835,2.0967623 A 1.2535561,0.52619967 0 0 0 12,1.8060991 Z m 2.110292,6.3288873 c 1.457612,0 2.619949,1.1725303 2.619949,2.6199486 v 2.689628 c 0,1.447417 -1.162337,2.629902 -2.619949,2.629902 -1.45761,0 -2.619948,-1.182485 -2.619948,-2.629902 v -2.689628 a 2.6196297,2.6196297 0 0 1 2.619948,-2.6199486 z m -3.7826,0.2030658 h 0.143339 V 16.074465 H 8.9420637 V 10.173609 L 7.1284071,10.733036 V 9.4807957 Z m 3.772645,1.2641849 c -0.601391,0 -1.081027,0.4898289 -1.081027,1.0810279 v 2.842922 c 0,0.581005 0.479636,1.061119 1.081027,1.061119 0.591199,0 1.100936,-0.490307 1.100936,-1.061119 v -2.842922 c 0,-0.601392 -0.509737,-1.0810279 -1.100936,-1.0810279 z" /></svg>

<?xml version="1.0" encoding="UTF-8"?>
<svg id="svg1" version="1.1" viewBox="0 0 24 24" xml:space="preserve" xmlns="http://www.w3.org/2000/svg"><path id="path4" d="m12 1.8061a1.2536 0.5262 0 0 0-1.1228 0.29066l-7.7543 6.5339a10.688 4.4865 0 0 0-1.1228 2.0008v2.7354a10.688 4.4865 0 0 0 1.1228 2.0008l7.7543 6.5339a1.2536 0.5262 0 0 0 2.2457 0l7.7543-6.5339a10.688 4.4865 0 0 0 1.1228-2.0008v-2.7354a10.688 4.4865 0 0 0-1.1228-2.0008l-7.7543-6.5339a1.2536 0.5262 0 0 0-1.1228-0.29066zm2.1103 6.3289c1.4576 0 2.6199 1.1725 2.6199 2.6199v2.6896c0 1.4474-1.1623 2.6299-2.6199 2.6299-1.4576 0-2.6199-1.1825-2.6199-2.6299v-2.6896a2.6196 2.6196 0 0 1 2.6199-2.6199zm-3.7826 0.20307h0.14334v7.7364h-1.529v-5.9009l-1.8137 0.55943v-1.2522zm3.7726 1.2642c-0.60139 0-1.081 0.48983-1.081 1.081v2.8429c0 0.581 0.47964 1.0611 1.081 1.0611 0.5912 0 1.1009-0.49031 1.1009-1.0611v-2.8429c0-0.60139-0.50974-1.081-1.1009-1.081z" style="paint-order:stroke markers fill"/></svg>
